X:115 
T:Killarney Boys of Pleasure (reel) 
B:CRE3.141 (GaiginÃÂÃÂÃÂÃÂ­ Chill Airne)
F:file ID: cre.3/115kill_bp
R:reel % A-B-A
M:C
L:1/8
Q:180
K:G
AF|:G/F/E DF E2FA|BFAF DEFA|BABd efed|dBAF FEDF|
E2DF E2FA|BFAF DEFA|BA B/^c/d efed|1 BdAG FEED:|\
[2 BdAF E2||
|:FA|Beed efed|b2AF DEFA|dffe f3e|dBAF DEFA|
Beed efed|b2AF DEFA|dffe dfed|1 dBAF E2:|2 dBAF FEDF||

%%%

